X:971
T:Mrs Anne Crookshanks
S:Can't remember
Z:Nigel Gatherer
L:1/8
M:4/4
K:C
c2 cc c2 G2 | c2 d2 c4 | e2 ee e2 c2 | gagf e3 f | 
gagf efge | fgfe defd | efed cgfe | d3 c [c4G4E4]||
g2 gg g2 a2 | gfef g4 | e2 ee e2 dc | dcBA G4 |
gagf efge | fgfe defd | efed cgfe | d3 c c4 ||
<end>
<start>
